;FLAVOR:UltiGCode
;TIME:9545
;MATERIAL:19126
;MATERIAL2:0
;NOZZLE_DIAMETER:0.4
;Generated with Cura_SteamEngine 3.0.4
M82 ; absolute extrusion mode

;LAYER_COUNT:66
;LAYER:0
M107
G0 F4500 X20.399 Y103.842 Z0.27
;TYPE:SUPPORT
G1 F1800 X21.495 Y103.755 E0.1039
G1 X22.694 Y103.851 E0.21757
G1 X23.882 Y104.13 E0.33289
G1 X25.024 Y104.6 E0.44959
G1 X26.091 Y105.263 E0.5683
G1 X26.969 Y106.013 E0.67742
G1 X27.77 Y106.95 E0.79391
G1 X28.394 Y107.967 E0.90667
G1 X28.867 Y109.115 E1.024
G1 X29.135 Y110.243 E1.13356
G1 X29.239 Y111.531 E1.25568
G1 X29.146 Y112.73 E1.36932
G1 X28.868 Y113.889 E1.48195
G1 X28.399 Y115.023 E1.59792
G1 X27.769 Y116.053 E1.71202
G1 X26.993 Y116.961 E1.82489
G1 X26.055 Y117.766 E1.9417
G1 X25.039 Y118.388 E2.05428
G1 X23.888 Y118.869 E2.17216
G1 X22.721 Y119.148 E2.28555
G1 X21.508 Y119.243 E2.40053
G1 X20.255 Y119.143 E2.51931
G1 X19.117 Y118.87 E2.62991
G1 X17.976 Y118.397 E2.74663
G1 X16.991 Y117.796 E2.85567
G1 X16.585 Y117.46 E2.90547
G1 X16.026 Y116.981 E2.97504
G1 X15.224 Y116.042 E3.09173
G1 X14.598 Y115.02 E3.20499
G1 X14.132 Y113.888 E3.32067
G1 X13.854 Y112.732 E3.43303
G1 X13.76 Y111.531 E3.54687
G1 X13.865 Y110.235 E3.66975
G1 X14.132 Y109.107 E3.77929
G1 X14.6 Y107.976 E3.89496
G1 X15.253 Y106.922 E4.01213
G1 X16.013 Y106.03 E4.12287
G1 X16.937 Y105.241 E4.23769
G1 X17.928 Y104.63 E4.34771
G1 X19.095 Y104.136 E4.46746
G1 X20.399 Y103.842 E4.59378
G0 F4500 X20.997 Y103.934
G1 F1800 X20.997 Y119.062 E6.02338
G0 F4500 X20.185 Y118.983
G1 F1800 X22.808 Y118.983 E6.27125
G0 F4500 X23.33 Y118.859
G1 F1800 X23.33 Y104.145 E7.66172
G0 F4500 X25.377 Y104.985
G1 F1800 X17.619 Y104.985 E8.39486
G0 F4500 X18.664 Y104.47
G1 F1800 X18.664 Y118.529 E9.72343
G0 F4500 X16.331 Y117.058
G1 F1800 X16.331 Y105.942 E10.77389
G0 F4500 X15.172 Y107.318
G1 F1800 X27.83 Y107.318 E11.97007
G0 F4500 X27.996 Y107.587
G1 F1800 X27.996 Y115.415 E12.70982
G0 F4500 X28.538 Y114.317
G1 F1800 X14.459 Y114.317 E14.04029
G0 F4500 X13.998 Y112.732
G1 F1800 X13.998 Y110.319 E14.26831
G0 F4500 X14.147 Y109.651
G1 F1800 X28.85 Y109.651 E15.65775
G0 F4500 X29.062 Y111.984
G1 F1800 X13.934 Y111.984 E17.08734
G0 F4500 X15.926 Y116.65
G1 F1800 X27.073 Y116.65 E18.14073
G0 F4500 X25.663 Y117.843
G1 F1800 X25.663 Y105.163 E19.33899
G10
G0 F4500 X25.835 Y104.886
G0 X26.468 Y103.85
G0 X26.923 Y104.036
G0 X26.865 Y104.116
;TYPE:WALL-INNER
G11
G1 F1800 X25.643 Y103.368 E19.47439
G1 X24.321 Y102.82 E19.60963
G1 X22.927 Y102.486 E19.74509
G1 X21.5 Y102.373 E19.88036
G1 X20.073 Y102.486 E20.01564
G1 X18.679 Y102.82 E20.1511
G1 X17.357 Y103.368 E20.28633
G1 X16.135 Y104.116 E20.42173
G1 X15.046 Y105.046 E20.55706
G1 X14.116 Y106.135 E20.69239
G1 X13.368 Y107.357 E20.82779
G1 X12.82 Y108.679 E20.96302
G1 X12.486 Y110.073 E21.09848
G1 X12.373 Y111.5 E21.23376
G1 X12.486 Y112.927 E21.36903
G1 X12.82 Y114.321 E21.50449
G1 X13.368 Y115.643 E21.63973
G1 X14.116 Y116.865 E21.77513
G1 X15.046 Y117.954 E21.91046
G1 X16.135 Y118.884 E22.04579
G1 X17.357 Y119.632 E22.18118
G1 X18.679 Y120.18 E22.31642
G1 X20.073 Y120.514 E22.45188
G1 X21.5 Y120.627 E22.58715
G1 X22.927 Y120.514 E22.72243
G1 X24.321 Y120.18 E22.85789
G1 X25.643 Y119.632 E22.99313
G1 X26.865 Y118.884 E23.12852
G1 X27.954 Y117.954 E23.26385
G1 X28.884 Y116.865 E23.39918
G1 X29.632 Y115.643 E23.53458
G1 X30.18 Y114.321 E23.66981
G1 X30.514 Y112.927 E23.80528
G1 X30.627 Y111.5 E23.94055
G1 X30.514 Y110.073 E24.07582
G1 X30.18 Y108.679 E24.21129
G1 X29.632 Y107.357 E24.34652
G1 X28.884 Y106.135 E24.48192
G1 X27.954 Y105.046 E24.61725
G1 X26.865 Y104.116 E24.75258
G0 F4500 X26.923 Y104.036
G0 X32.855 Y95.805
G0 X32.913 Y95.724
G1 F1800 X34.505 Y97.007 E24.9458
G1 X35.944 Y98.44 E25.13771
G1 X37.249 Y100.046 E25.33326
G1 X38.366 Y101.764 E25.52691
G1 X39.293 Y103.584 E25.71993
G1 X40.021 Y105.481 E25.91194
G1 X40.548 Y107.447 E26.10429
G1 X40.867 Y109.461 E26.29698
G1 X40.973 Y111.5 E26.48993
G1 X40.867 Y113.539 E26.68287
G1 X40.548 Y115.553 E26.87557
G1 X40.021 Y117.519 E27.06792
G1 X39.293 Y119.416 E27.25993
G1 X38.366 Y121.236 E27.45294
G1 X37.25 Y122.953 E27.64646
G1 X35.972 Y124.532 E27.83843
G1 X34.532 Y125.972 E28.03088
G1 X32.953 Y127.25 E28.22284
G1 X31.236 Y128.366 E28.41636
G1 X29.416 Y129.293 E28.60937
G1 X27.519 Y130.021 E28.80139
G1 X25.553 Y130.548 E28.99373
G1 X23.539 Y130.867 E29.18643
G1 X21.5 Y130.973 E29.37938
G1 X19.461 Y130.867 E29.57232
G1 X17.447 Y130.548 E29.76502
G1 X15.481 Y130.021 E29.95736
G1 X13.584 Y129.293 E30.14938
G1 X11.764 Y128.366 E30.34239
G1 X10.047 Y127.25 E30.53591
G1 X8.468 Y125.972 E30.72788
G1 X7.028 Y124.532 E30.92032
G1 X5.75 Y122.953 E31.11229
G1 X4.634 Y121.236 E31.30581
G1 X3.707 Y119.416 E31.49882
G1 X2.979 Y117.519 E31.69083
G1 X2.452 Y115.553 E31.88318
G1 X2.133 Y113.539 E32.07588
G1 X2.027 Y111.5 E32.26882
G1 X2.133 Y109.461 E32.46177
G1 X2.452 Y107.447 E32.65446
G1 X2.979 Y105.481 E32.84681
G1 X3.707 Y103.584 E33.03882
G1 X4.634 Y101.764 E33.23184
G1 X5.75 Y100.047 E33.42536
G1 X7.028 Y98.468 E33.61732
G1 X8.468 Y97.028 E33.80977
G1 X10.047 Y95.75 E34.00173
G1 X11.764 Y94.634 E34.19525
G1 X13.584 Y93.707 E34.38827
G1 X15.481 Y92.979 E34.58028
G1 X17.447 Y92.452 E34.77263
G1 X19.461 Y92.133 E34.96532
G1 X21.5 Y92.027 E35.15827
G1 X23.5 Y92.131 E35.34752
G1 X25.517 Y92.446 E35.54044
G1 X27.47 Y92.964 E35.73138
G1 X29.39 Y93.697 E35.92559
G1 X31.193 Y94.61 E36.11658
G1 X32.913 Y95.724 E36.31023
G0 F4500 X32.855 Y95.805
G0 X23.49 Y92.23
G0 X23.528 Y91.807
;TYPE:WALL-OUTER
G1 F1800 X25.583 Y92.128 E36.50678
G1 X27.575 Y92.656 E36.70153
G1 X29.52 Y93.398 E36.89825
G1 X31.357 Y94.329 E37.09287
G1 X33.101 Y95.458 E37.2892
G1 X34.719 Y96.762 E37.48557
G1 X36.187 Y98.224 E37.68136
G1 X37.515 Y99.858 E37.88034
G1 X38.649 Y101.603 E38.077
G1 X39.586 Y103.442 E38.27205
G1 X40.332 Y105.386 E38.46882
G1 X40.866 Y107.379 E38.6638
G1 X41.191 Y109.431 E38.86013
G1 X41.299 Y111.5 E39.05592
G1 X41.191 Y113.569 E39.2517
G1 X40.866 Y115.621 E39.44803
G1 X40.332 Y117.614 E39.64302
G1 X39.586 Y119.558 E39.83979
G1 X38.649 Y121.397 E40.03483
G1 X37.515 Y123.142 E40.23149
G1 X36.212 Y124.752 E40.42722
G1 X34.752 Y126.212 E40.62234
G1 X33.142 Y127.515 E40.81807
G1 X31.397 Y128.649 E41.01473
G1 X29.558 Y129.586 E41.20978
G1 X27.614 Y130.332 E41.40655
G1 X25.621 Y130.866 E41.60153
G1 X23.569 Y131.191 E41.79786
G1 X21.5 Y131.299 E41.99365
G1 X19.431 Y131.191 E42.18943
G1 X17.379 Y130.866 E42.38577
G1 X15.386 Y130.332 E42.58075
G1 X13.442 Y129.586 E42.77752
G1 X11.603 Y128.649 E42.97256
G1 X9.858 Y127.515 E43.16922
G1 X8.248 Y126.212 E43.36495
G1 X6.788 Y124.752 E43.56007
G1 X5.485 Y123.142 E43.7558
G1 X4.351 Y121.397 E43.95247
G1 X3.414 Y119.558 E44.14751
G1 X2.668 Y117.614 E44.34428
G1 X2.134 Y115.621 E44.53926
G1 X1.809 Y113.569 E44.73559
G1 X1.701 Y111.5 E44.93138
G1 X1.809 Y109.431 E45.12717
G1 X2.134 Y107.379 E45.3235
G1 X2.668 Y105.386 E45.51848
G1 X3.414 Y103.442 E45.71525
G1 X4.351 Y101.603 E45.91029
G1 X5.485 Y99.858 E46.10696
G1 X6.788 Y98.248 E46.30269
G1 X8.248 Y96.788 E46.4978
G1 X9.858 Y95.485 E46.69353
G1 X11.603 Y94.351 E46.8902
G1 X13.442 Y93.414 E47.08524
G1 X15.386 Y92.668 E47.28201
G1 X17.379 Y92.134 E47.47699
G1 X19.431 Y91.809 E47.67332
G1 X21.5 Y91.701 E47.86911
G1 X23.528 Y91.807 E48.06102
G0 F4500 X23.725 Y91.837
G0 X23.658 Y92.256
G0 X20.091 Y102.385
G0 X20.124 Y102.808
G1 F1800 X18.78 Y103.13 E48.19162
G1 X17.505 Y103.658 E48.32203
G1 X16.327 Y104.38 E48.4526
G1 X15.277 Y105.277 E48.5831
G1 X14.38 Y106.327 E48.7136
G1 X13.658 Y107.505 E48.84417
G1 X13.13 Y108.78 E48.97458
G1 X12.808 Y110.124 E49.10518
G1 X12.699 Y111.5 E49.23562
G1 X12.808 Y112.876 E49.36606
G1 X13.13 Y114.22 E49.49666
G1 X13.658 Y115.495 E49.62707
G1 X14.38 Y116.673 E49.75764
G1 X15.277 Y117.723 E49.88814
G1 X16.327 Y118.62 E50.01864
G1 X17.505 Y119.342 E50.14921
G1 X18.78 Y119.87 E50.27962
G1 X20.124 Y120.192 E50.41022
G1 X21.5 Y120.301 E50.54066
G1 X22.876 Y120.192 E50.6711
G1 X24.22 Y119.87 E50.8017
G1 X25.495 Y119.342 E50.93211
G1 X26.673 Y118.62 E51.06268
G1 X27.723 Y117.723 E51.19318
G1 X28.62 Y116.673 E51.32369
G1 X29.342 Y115.495 E51.45425
G1 X29.87 Y114.22 E51.58466
G1 X30.192 Y112.876 E51.71527
G1 X30.301 Y111.5 E51.8457
G1 X30.192 Y110.124 E51.97614
G1 X29.87 Y108.78 E52.10675
G1 X29.342 Y107.505 E52.23716
G1 X28.62 Y106.327 E52.36772
G1 X27.723 Y105.277 E52.49823
G1 X26.673 Y104.38 E52.62873
G1 X25.495 Y103.658 E52.75929
G1 X24.22 Y103.13 E52.8897
G1 X22.876 Y102.808 E53.02031
G1 X21.5 Y102.699 E53.15075
G1 X20.124 Y102.808 E53.28119
G0 F4500 X19.93 Y102.854
G0 X19.833 Y102.441
G0 X20.019 Y102.14
;TYPE:WALL-INNER
G1 F1800 X18.571 Y102.486 E53.42187
G1 X17.197 Y103.056 E53.56245
G1 X15.929 Y103.832 E53.70293
G1 X14.798 Y104.798 E53.84349
G1 X13.832 Y105.929 E53.98405
G1 X13.056 Y107.197 E54.12453
G1 X12.486 Y108.571 E54.2651
G1 X12.14 Y110.019 E54.40579
G1 X12.021 Y111.5 E54.5462
G1 X12.14 Y112.981 E54.6866
G1 X12.486 Y114.429 E54.82729
G1 X13.056 Y115.803 E54.96786
G1 X13.832 Y117.071 E55.10835
G1 X14.798 Y118.202 E55.24891
G1 X15.929 Y119.168 E55.38946
G1 X17.197 Y119.944 E55.52995
G1 X18.571 Y120.514 E55.67052
G1 X20.019 Y120.86 E55.81121
G1 X21.5 Y120.979 E55.95161
G1 X22.981 Y120.86 E56.09202
G1 X24.429 Y120.514 E56.23271
G1 X25.803 Y119.944 E56.37328
G1 X27.071 Y119.168 E56.51377
G1 X28.202 Y118.202 E56.65432
G1 X29.168 Y117.071 E56.79488
G1 X29.944 Y115.803 E56.93537
G1 X30.514 Y114.429 E57.07594
G1 X30.86 Y112.981 E57.21663
G1 X30.979 Y111.5 E57.35703
G1 X30.86 Y110.019 E57.49744
G1 X30.514 Y108.571 E57.63813
G1 X29.944 Y107.197 E57.7787
G1 X29.168 Y105.929 E57.91918
G1 X28.202 Y104.798 E58.05974
G1 X27.071 Y103.832 E58.2003
G1 X25.803 Y103.056 E58.34078
G1 X24.429 Y102.486 E58.48136
G1 X22.981 Y102.14 E58.62204
G1 X21.5 Y102.021 E58.76245
G1 X20.019 Y102.14 E58.90286
G0 F4500 X17.517 Y92.796
G1 F1800 X19.495 Y92.483 E59.0921
G1 X21.5 Y92.377 E59.28184
G1 X23.466 Y92.481 E59.46789
G1 X25.449 Y92.79 E59.65754
G1 X27.372 Y93.3 E59.84555
G1 X29.24 Y94.013 E60.03449
G1 X31.015 Y94.912 E60.22252
G1 X32.709 Y96.01 E60.41329
G1 X34.27 Y97.267 E60.60268
G1 X35.685 Y98.677 E60.79146
G1 X36.965 Y100.25 E60.9831
G1 X38.064 Y101.942 E61.17376
G1 X38.975 Y103.728 E61.36323
G1 X39.687 Y105.587 E61.55135
G1 X40.204 Y107.517 E61.74016
G1 X40.517 Y109.495 E61.92941
G1 X40.623 Y111.5 E62.11915
G1 X40.517 Y113.505 E62.30888
G1 X40.204 Y115.483 E62.49813
G1 X39.687 Y117.413 E62.68695
G1 X38.975 Y119.272 E62.87507
G1 X38.064 Y121.058 E63.06453
G1 X36.966 Y122.749 E63.25506
G1 X35.717 Y124.291 E63.44259
G1 X34.291 Y125.717 E63.63316
G1 X32.749 Y126.966 E63.82069
G1 X31.058 Y128.064 E64.01122
G1 X29.272 Y128.975 E64.20068
G1 X27.413 Y129.687 E64.3888
G1 X25.483 Y130.204 E64.57762
G1 X23.505 Y130.517 E64.76686
G1 X21.5 Y130.623 E64.9566
G1 X19.495 Y130.517 E65.14634
G1 X17.517 Y130.204 E65.33558
G1 X15.587 Y129.687 E65.5244
G1 X13.728 Y128.975 E65.71252
G1 X11.942 Y128.064 E65.90199
G1 X10.251 Y126.966 E66.09252
G1 X8.709 Y125.717 E66.28004
G1 X7.283 Y124.291 E66.47062
G1 X6.034 Y122.749 E66.65814
G1 X4.936 Y121.058 E66.84867
G1 X4.025 Y119.272 E67.03814
G1 X3.313 Y117.413 E67.22626
G1 X2.796 Y115.483 E67.41507
G1 X2.483 Y113.505 E67.60432
G1 X2.377 Y111.5 E67.79406
G1 X2.483 Y109.495 E67.98379
G1 X2.796 Y107.517 E68.17304
G1 X3.313 Y105.587 E68.36185
G1 X4.025 Y103.728 E68.54997
G1 X4.936 Y101.942 E68.73944
G1 X6.034 Y100.251 E68.92997
G1 X7.283 Y98.709 E69.11749
G1 X8.709 Y97.283 E69.30807
G1 X10.251 Y96.034 E69.49559
G1 X11.942 Y94.936 E69.68613
G1 X13.728 Y94.025 E69.87559
G1 X15.587 Y93.313 E70.06371
G1 X17.517 Y92.796 E70.25253
G0 F4500 X36.191 Y99.548
;TYPE:SKIN
G1 F1800 X33.458 Y96.814 E70.61784
G1 X33.397 Y96.753
G0 F4500 X31.677 Y95.529
G1 F1800 X37.483 Y101.334 E71.3937
G1 X37.544 Y101.395
G0 F4500 X38.192 Y102.539
G1 F1800 X30.46 Y94.807 E72.42703
G1 X30.399 Y94.746
G0 F4500 X29.456 Y94.298
G1 F1800 X38.707 Y103.549 E73.66337
G1 X38.768 Y103.61
G0 F4500 X39.064 Y104.401
G1 F1800 X28.598 Y93.935 E75.06208
G1 X28.537 Y93.874
G0 F4500 X27.799 Y93.63
G1 F1800 X39.37 Y105.202 E76.60853
G1 X39.431 Y105.263
G0 F4500 X39.619 Y105.946
G1 F1800 X27.051 Y93.377 E78.28822
G1 X26.99 Y93.316
G0 F4500 X26.377 Y93.198
G1 F1800 X39.801 Y106.623 E80.08232
G1 X39.862 Y106.684
G0 F4500 X39.983 Y107.299
G1 F1800 X25.703 Y93.019 E81.99074
G1 X25.642 Y92.958
G0 F4500 X25.08 Y92.891
G1 F1800 X40.108 Y107.92 E83.9992
G1 X40.169 Y107.981
G0 F4500 X40.201 Y108.507
G1 F1800 X24.494 Y92.801 E86.09826
G1 X24.433 Y92.74
G0 F4500 X23.908 Y92.71
G1 F1800 X40.293 Y109.095 E88.28801
G1 X40.354 Y109.156
G0 F4500 X40.367 Y109.663
G1 F1800 X23.336 Y92.633 E90.56402
G1 X23.275 Y92.572
G0 F4500 X22.813 Y92.604
G1 F1800 X40.395 Y110.187 E92.9138
G1 X40.456 Y110.248
G0 F4500 X40.423 Y110.709
G1 F1800 X22.29 Y92.576 E95.33715
G1 X22.229 Y92.515
G0 F4500 X21.767 Y92.548
G1 F1800 X40.45 Y111.232 E97.83407
G1 X40.511 Y111.293
G0 F4500 X40.452 Y111.729
G1 F1800 X21.27 Y92.546 E100.39768
G1 X21.209 Y92.485
G0 F4500 X20.8 Y92.571
G1 F1800 X40.428 Y112.199 E103.02083
G1 X40.489 Y112.26
G0 F4500 X40.402 Y112.668
G1 F1800 X20.33 Y92.597 E105.70325
G1 X20.269 Y92.536
G0 F4500 X19.86 Y92.621
G1 F1800 X40.377 Y113.139 E108.44527
G1 X40.438 Y113.2
G0 F4500 X40.341 Y113.598
G1 F1800 X19.401 Y92.657 E111.24383
G1 X19.34 Y92.596
G0 F4500 X18.973 Y92.725
G1 F1800 X40.274 Y114.025 E114.0905
G1 X40.335 Y114.086
G0 F4500 X40.206 Y114.453
G1 F1800 X18.546 Y92.792 E116.98527
G1 X18.485 Y92.731
G0 F4500 X18.118 Y92.86
G1 F1800 X40.139 Y114.88 E119.92816
G1 X40.2 Y114.941
G0 F4500 X40.072 Y115.308
G1 F1800 X17.691 Y92.927 E122.91923
G1 X17.63 Y92.866
G0 F4500 X17.288 Y93.019
G1 F1800 X39.979 Y115.71 E125.95173
G1 X40.04 Y115.771
G0 F4500 X39.875 Y116.101
G1 F1800 X16.898 Y93.124 E129.02245
G1 X16.837 Y93.063
G0 F4500 X16.508 Y93.229
G1 F1800 X26.696 Y103.417 E130.38401
G1 X26.757 Y103.478
G0 F4500 X25.573 Y102.789
G1 F1800 X16.117 Y93.333 E131.64774
G1 X16.056 Y93.272
G0 F4500 X15.727 Y93.438
G1 F1800 X24.727 Y102.438 E132.85052
G1 X24.788 Y102.499
G0 F4500 X24.019 Y102.225
G1 F1800 X15.361 Y93.567 E134.00761
G1 X15.3 Y93.506
G0 F4500 X15.004 Y93.705
G1 F1800 X23.369 Y102.07 E135.12553
G1 X23.43 Y102.131
G0 F4500 X22.767 Y101.963
G1 F1800 X14.646 Y93.842 E136.21085
G1 X14.585 Y93.781
G0 F4500 X14.288 Y93.979
G1 F1800 X22.229 Y101.92 E137.27211
G1 X22.29 Y101.981
G0 F4500 X21.69 Y101.876
G1 F1800 X13.93 Y94.116 E138.30918
G1 X13.869 Y94.055
G0 F4500 X13.591 Y94.272
G1 F1800 X21.204 Y101.884 E139.32654
G1 X21.265 Y101.945
G0 F4500 X20.746 Y101.922
G1 F1800 X13.263 Y94.439 E140.32659
G1 X13.202 Y94.378
G0 F4500 X12.935 Y94.606
G1 F1800 X20.288 Y101.959 E141.30927
G1 X20.349 Y102.02
G0 F4500 X19.851 Y102.017
G1 F1800 X12.607 Y94.773 E142.27738
G1 X12.546 Y94.712
G0 F4500 X12.279 Y94.94
G1 F1800 X19.451 Y102.112 E143.23587
G1 X19.512 Y102.173
G0 F4500 X19.052 Y102.208
G1 F1800 X11.957 Y95.112 E144.18413
G1 X11.896 Y95.051
G0 F4500 X11.657 Y95.308
G1 F1800 X18.652 Y102.303 E145.11897
G1 X18.713 Y102.364
G0 F4500 X18.286 Y102.432
G1 F1800 X11.357 Y95.503 E146.04498
G1 X11.296 Y95.442
G0 F4500 X11.057 Y95.697
G1 F1800 X17.937 Y102.577 E146.96445
G1 X17.998 Y102.638
G0 F4500 X17.587 Y102.722
G1 F1800 X10.757 Y95.892 E147.87723
G1 X10.696 Y95.831
G0 F4500 X10.457 Y96.088
G1 F1800 X17.237 Y102.868 E148.78333
G1 X17.298 Y102.929
G0 F4500 X16.916 Y103.042
G1 F1800 X10.173 Y96.299 E149.68449
G1 X10.112 Y96.238
G0 F4500 X9.9 Y96.52
G1 F1800 X16.609 Y103.229 E150.5811
G1 X16.67 Y103.29
G0 F4500 X16.302 Y103.417
G1 F1800 X9.627 Y96.742 E151.47317
G1 X9.566 Y96.681
G0 F4500 X9.353 Y96.964
G1 F1800 X15.995 Y103.605 E152.36076
G1 X16.056 Y103.666
G0 F4500 X15.706 Y103.812
G1 F1800 X9.079 Y97.185 E153.24641
G1 X9.018 Y97.124
G0 F4500 X8.807 Y97.408
G1 F1800 X15.44 Y104.04 E154.1328
G1 X15.501 Y104.101
G0 F4500 X15.173 Y104.268
G1 F1800 X8.56 Y97.655 E155.01658
G1 X8.499 Y97.594
G0 F4500 X8.312 Y97.903
G1 F1800 X14.905 Y104.496 E155.89769
G1 X14.966 Y104.557
G0 F4500 X14.646 Y104.731
G1 F1800 X8.065 Y98.15 E156.7772
G1 X8.004 Y98.089
G0 F4500 X7.817 Y98.398
G1 F1800 X14.418 Y104.998 E157.65931
G1 X14.479 Y105.059
